assets/images/mdn-search.svg

<svg height="160" preserveAspectRatio="xMidYMid meet" viewBox="0 0 640 640" width="160" xmlns="http://www.w3.org/2000/svg" xmlns:xlink="http://www.w3.org/1999/xlink"><defs><path id="a" d="m-269.06 661.82-.46.23-.23-.23v.23l-146.33 58.48-146.34-58.48v-.23l-.23.23-.45-.23v.23l-146.56 58.71v458.95l147.01-56.19 146.11 55.96v.23h.91v-.23l146.11-55.96 147.02 56.19v-458.95l-146.56-58.71z"/><linearGradient id="b"><stop offset="0" stop-color="#2075bc"/><stop offset="1" stop-color="#29aae1"/></linearGradient><linearGradient id="c" gradientUnits="userSpaceOnUse" x1="-416.08" x2="-416.08" xlink:href="#b" y1="1179.81" y2="661.82"/><path id="d" d="m-709.66 1179.71 147.24-56.19v-461.7l-147.24 58.94z"/><linearGradient id="e"><stop offset="0" stop-color="#0a6aa8"/><stop offset="1" stop-color="#1699c8"/></linearGradient><linearGradient id="f" gradientUnits="userSpaceOnUse" x1="-636.01" x2="-636.01" xlink:href="#e" y1="1179.81" y2="661.82"/><path id="g" d="m-122.27 1179.71-147.48-56.19v-461.7l147.48 58.94z"/><linearGradient id="h" gradientUnits="userSpaceOnUse" x1="-196.04" x2="-196.04" xlink:href="#b" y1="1179.81" y2="661.82"/><path id="i" d="m-417.23 1179.71 147.48-56.19v-461.7l-147.48 58.94z"/><linearGradient id="j" gradientUnits="userSpaceOnUse" x1="-343.46" x2="-343.46" xlink:href="#e" y1="1179.81" y2="661.82"/><path id="k" d="m-122.5 1179.71-147.25-56.19v-461.7l147.25 58.94z"/><linearGradient id="l" gradientUnits="userSpaceOnUse" x1="-196.16" x2="-196.16" xlink:href="#b" y1="1179.81" y2="661.82"/><path id="m" d="m-564.03 1007.5-.79-.01-1.14.21-2.65.22 1.55-1.71 1.55-1.64 1.55-1.52 1.54-1.32v6.19z"/><path id="n" d="m563.37 459.87c-62.93 102.27-173.07 153.31-283.42 137.2 13.03-22.51 117.25-202.61 130.28-225.13 28.66-49.62 11.65-113.22-38.02-141.68-16.18-9.54-34.11-14.35-51.71-14.35h260.61c30.13 94.45 24.22 175.77-17.74 243.96z"/><path id="o" d="m320.55 215.91c-35.83 0-70.67 19.12-89.83 52.4-18.76 32.21-17.98 70.99-1.07 101.69-12.93-22.33-116.33-201-129.26-223.33 84.76-107.43 238.14-139.64 360.19-69.29 56.98 32.75 98.01 82.08 120.53 138.53-52.11 0-234.5 0-260.56 0z"/><path id="p" d="m279.95 597.32c-34.17-4.92-67.9-16.3-99.58-34.5-134.28-77.41-180.19-248.58-102.74-382.43 6.92-12.07 14.52-23.11 22.71-33.62 8.62 14.89 51.71 89.39 129.26 223.47.64 1.11 1 1.73 1.07 1.85 8.78 15.23 21.64 28.51 38.02 37.81 49.52 28.61 112.98 11.62 141.54-37.81-26.06 45.05-117.25 202.71-130.28 225.23z"/><path id="q" d="m560.85 290.86c-18.34-25.15-85.1-29.54-115.18-62.5 5.38-16.35-5.38-29.78-16.38-40.03-16.39-11.97-39.37-6.59-56.98-1.96-20.05-4.15-38.64-11.47-57.96-17.08-43.52-4.64-86.56 25.87-86.56 25.87-31.06 19.53-79.72 60.3-102.95 84.22 5.62.74 11.73-3.41 18.09-4.15 4.48-1.14 40.28-10.32 44.75-11.47-18.58 15.38-57.71 42.23-68.96 63.47 13.94-4.64 43.04-20.75 57.71-21.97-12.71 11.23-39.12 32.47-47.68 45.89.98.49.24 1.71.49 2.44 11-6.1 37.41-21.72 49.39-22.7-12.47 12.94-35.21 37.6-40.35 54.2 10.76-7.08 37.91-21.24 49.65-25.64-2.69 6.59-8.81 11.48-12.72 18.07-5.38 9.03-18.1 19.28-18.58 30.27 9.53-8.79 21.27-16.36 33.01-22.7-5.38 10.98-14.92 20.01-17.61 32.95 7.83-7.57 22.25-11.23 32.28-14.65-.12.13-1.1 1.1-1.22 1.23-.74.73-11.98 8.54-19.57 17.33 6.85-.49 1.72-1.22 10.28.73.46.02 4.18.22 4.64.24-2.2 1.22-4.89 2.45-7.58 3.91-4.16 2.2-8.56 4.64-13.2 7.08 18.58 23.68 41.57 42.48 67.73 55.41 34.24 16.85 71.9 22.22 109.31 17.82-.14-.65-1.32-5.93-1.46-6.59-.74-2.68-1.47-5.37-2.45-7.81 0-.24 0-.24-.24-.49 12.71-23.68 6.11-64.44 38.88-80.8 22.01-11.23 24.7-17.33 49.88-12.69 13.7 2.68 43.78 12.93 57.96 9.76 12.96-7.32 19.56-10.5 30.81-19.04 14.18 2.44 18.59 1.22 23.97-6.35-4.65 6.59 9.04-25.39 14.91-37.59.05-.41.3-2.44.74-6.1-2.61-29.62-4.89-45.82-6.85-48.58z"/></defs><use fill="url(#c)" xlink:href="#a"/><use fill="none" xlink:href="#a"/><use fill="url(#f)" xlink:href="#d"/><use fill="none" xlink:href="#d"/><use fill="url(#h)" xlink:href="#g"/><use fill="none" xlink:href="#g"/><use fill="url(#j)" xlink:href="#i"/><use fill="none" xlink:href="#i"/><use fill="url(#l)" xlink:href="#k"/><use fill="none" xlink:href="#k"/><use fill="#f2f2f2" xlink:href="#m"/><use fill="none" xlink:href="#m"/><use fill="#fed130" xlink:href="#n"/><use fill="none" xlink:href="#n"/><use fill="#e64a45" xlink:href="#o"/><use fill="none" xlink:href="#o"/><use fill="#51b84e" xlink:href="#p"/><use fill="none" xlink:href="#p"/><use fill="#0d77b0" xlink:href="#q"/><use fill="none" stroke="#fff" stroke-width="12" xlink:href="#q"/></svg>

<svg version="1.1" xmlns="http://www.w3.org/2000/svg" xmlns:xlink="http://www.w3.org/1999/xlink" preserveAspectRatio="xMidYMid meet" viewBox="0 0 640 640" width="160" height="160"><defs><path d="M-269.06 661.82L-269.52 662.05L-269.75 661.82L-269.75 662.05L-416.08 720.53L-562.42 662.05L-562.42 661.82L-562.65 662.05L-563.1 661.82L-563.1 662.05L-709.66 720.76L-709.66 1179.71L-562.65 1123.52L-416.54 1179.48L-416.54 1179.71L-415.63 1179.71L-415.63 1179.48L-269.52 1123.52L-122.5 1179.71L-122.5 720.76L-269.06 662.05L-269.06 661.82Z" id="a7arTiBo1p"/><linearGradient id="gradientak3TRPe" gradientUnits="userSpaceOnUse" x1="-416.08" y1="1179.81" x2="-416.08" y2="661.82"><stop offset="0%" stop-color="#2075bc" stop-opacity="1"/><stop offset="100%" stop-color="#29aae1" stop-opacity="1"/></linearGradient><path d="M-709.66 1179.71L-562.42 1123.52L-562.42 661.82L-709.66 720.76L-709.66 1179.71Z" id="b51iRaEZeX"/><linearGradient id="gradientb26U4gB0P" gradientUnits="userSpaceOnUse" x1="-636.01" y1="1179.81" x2="-636.01" y2="661.82"><stop offset="0%" stop-color="#0a6aa8" stop-opacity="1"/><stop offset="100%" stop-color="#1699c8" stop-opacity="1"/></linearGradient><path d="M-122.27 1179.71L-269.75 1123.52L-269.75 661.82L-122.27 720.76L-122.27 1179.71Z" id="e4Z7oqJ4tP"/><linearGradient id="gradienta1uI7lH0kp" gradientUnits="userSpaceOnUse" x1="-196.04" y1="1179.81" x2="-196.04" y2="661.82"><stop offset="0%" stop-color="#2075bc" stop-opacity="1"/><stop offset="100%" stop-color="#29aae1" stop-opacity="1"/></linearGradient><path d="M-417.23 1179.71L-269.75 1123.52L-269.75 661.82L-417.23 720.76L-417.23 1179.71Z" id="aotXNRfWG"/><linearGradient id="gradientd5BRCEcU7g" gradientUnits="userSpaceOnUse" x1="-343.46" y1="1179.81" x2="-343.46" y2="661.82"><stop offset="0%" stop-color="#0a6aa8" stop-opacity="1"/><stop offset="100%" stop-color="#1699c8" stop-opacity="1"/></linearGradient><path d="M-122.5 1179.71L-269.75 1123.52L-269.75 661.82L-122.5 720.76L-122.5 1179.71Z" id="b1sK8mCz19"/><linearGradient id="gradientb1mLD1Pnhk" gradientUnits="userSpaceOnUse" x1="-196.16" y1="1179.81" x2="-196.16" y2="661.82"><stop offset="0%" stop-color="#2075bc" stop-opacity="1"/><stop offset="100%" stop-color="#29aae1" stop-opacity="1"/></linearGradient><path d="M-564.03 1007.5L-564.82 1007.49L-565.96 1007.7L-568.61 1007.92L-567.06 1006.21L-565.51 1004.57L-563.96 1003.05L-562.42 1001.73L-562.42 1007.92L-564.03 1007.5Z" id="b1LOyZJX6B"/><path d="M563.37 459.87C500.44 562.14 390.3 613.18 279.95 597.07C292.98 574.56 397.2 394.46 410.23 371.94C438.89 322.32 421.88 258.72 372.21 230.26C356.03 220.72 338.1 215.91 320.5 215.91C337.87 215.91 424.74 215.91 581.11 215.91C611.24 310.36 605.33 391.68 563.37 459.87Z" id="a9z2ICljZ"/><path d="M320.55 215.91C284.72 215.91 249.88 235.03 230.72 268.31C211.96 300.52 212.74 339.3 229.65 370C216.72 347.67 113.32 169 100.39 146.67C185.15 39.24 338.53 7.03 460.58 77.38C517.56 110.13 558.59 159.46 581.11 215.91C529 215.91 346.61 215.91 320.55 215.91Z" id="eLopQU8CP"/><path d="M279.95 597.32C245.78 592.4 212.05 581.02 180.37 562.82C46.09 485.41 0.18 314.24 77.63 180.39C84.55 168.32 92.15 157.28 100.34 146.77C108.96 161.66 152.05 236.16 229.6 370.24C230.24 371.35 230.6 371.97 230.67 372.09C239.45 387.32 252.31 400.6 268.69 409.9C318.21 438.51 381.67 421.52 410.23 372.09C384.17 417.14 292.98 574.8 279.95 597.32Z" id="a2p5OvdxfG"/><path d="M560.85 290.86C542.51 265.71 475.75 261.32 445.67 228.36C451.05 212.01 440.29 198.58 429.29 188.33C412.9 176.36 389.92 181.74 372.31 186.37C352.26 182.22 333.67 174.9 314.35 169.29C270.83 164.65 227.79 195.16 227.79 195.16C196.73 214.69 148.07 255.46 124.84 279.38C130.46 280.12 136.57 275.97 142.93 275.23C147.41 274.09 183.21 264.91 187.68 263.76C169.1 279.14 129.97 305.99 118.72 327.23C132.66 322.59 161.76 306.48 176.43 305.26C163.72 316.49 137.31 337.73 128.75 351.15C129.73 351.64 128.99 352.86 129.24 353.59C140.24 347.49 166.65 331.87 178.63 330.89C166.16 343.83 143.42 368.49 138.28 385.09C149.04 378.01 176.19 363.85 187.93 359.45C185.24 366.04 179.12 370.93 175.21 377.52C169.83 386.55 157.11 396.8 156.63 407.79C166.16 399 177.9 391.43 189.64 385.09C184.26 396.07 174.72 405.1 172.03 418.04C179.86 410.47 194.28 406.81 204.31 403.39C204.19 403.52 203.21 404.49 203.09 404.62C202.35 405.35 191.11 413.16 183.52 421.95C190.37 421.46 185.24 420.73 193.8 422.68C194.26 422.7 197.98 422.9 198.44 422.92C196.24 424.14 193.55 425.37 190.86 426.83C186.7 429.03 182.3 431.47 177.66 433.91C196.24 457.59 219.23 476.39 245.39 489.32C279.63 506.17 317.29 511.54 354.7 507.14C354.56 506.49 353.38 501.21 353.24 500.55C352.5 497.87 351.77 495.18 350.79 492.74C350.79 492.5 350.79 492.5 350.55 492.25C363.26 468.57 356.66 427.81 389.43 411.45C411.44 400.22 414.13 394.12 439.31 398.76C453.01 401.44 483.09 411.69 497.27 408.52C510.23 401.2 516.83 398.02 528.08 389.48C542.26 391.92 546.67 390.7 552.05 383.13C547.4 389.72 561.09 357.74 566.96 345.54C567.01 345.13 567.26 343.1 567.7 339.44C565.09 309.82 562.81 293.62 560.85 290.86Z" id="a61rcrXpoL"/></defs><g><g><g><use xlink:href="#a7arTiBo1p" opacity="1" fill="url(#gradientak3TRPe)"/><g><use xlink:href="#a7arTiBo1p" opacity="1" fill-opacity="0" stroke="#000" stroke-width="1" stroke-opacity="0"/></g></g><g><use xlink:href="#b51iRaEZeX" opacity="1" fill="url(#gradientb26U4gB0P)"/><g><use xlink:href="#b51iRaEZeX" opacity="1" fill-opacity="0" stroke="#000" stroke-width="1" stroke-opacity="0"/></g></g><g><use xlink:href="#e4Z7oqJ4tP" opacity="1" fill="url(#gradienta1uI7lH0kp)"/><g><use xlink:href="#e4Z7oqJ4tP" opacity="1" fill-opacity="0" stroke="#000" stroke-width="1" stroke-opacity="0"/></g></g><g><use xlink:href="#aotXNRfWG" opacity="1" fill="url(#gradientd5BRCEcU7g)"/><g><use xlink:href="#aotXNRfWG" opacity="1" fill-opacity="0" stroke="#000" stroke-width="1" stroke-opacity="0"/></g></g><g><use xlink:href="#b1sK8mCz19" opacity="1" fill="url(#gradientb1mLD1Pnhk)"/><g><use xlink:href="#b1sK8mCz19" opacity="1" fill-opacity="0" stroke="#000" stroke-width="1" stroke-opacity="0"/></g></g><g><use xlink:href="#b1LOyZJX6B" opacity="1" fill="#f2f2f2" fill-opacity="1"/><g><use xlink:href="#b1LOyZJX6B" opacity="1" fill-opacity="0" stroke="#000" stroke-width="1" stroke-opacity="0"/></g></g><g><use xlink:href="#a9z2ICljZ" opacity="1" fill="#fed130" fill-opacity="1"/><g><use xlink:href="#a9z2ICljZ" opacity="1" fill-opacity="0" stroke="#000" stroke-width="1" stroke-opacity="0"/></g></g><g><use xlink:href="#eLopQU8CP" opacity="1" fill="#e64a45" fill-opacity="1"/><g><use xlink:href="#eLopQU8CP" opacity="1" fill-opacity="0" stroke="#000" stroke-width="1" stroke-opacity="0"/></g></g><g><use xlink:href="#a2p5OvdxfG" opacity="1" fill="#51b84e" fill-opacity="1"/><g><use xlink:href="#a2p5OvdxfG" opacity="1" fill-opacity="0" stroke="#000" stroke-width="1" stroke-opacity="0"/></g></g><g><use xlink:href="#a61rcrXpoL" opacity="1" fill="#0d77b0" fill-opacity="1"/><g><use xlink:href="#a61rcrXpoL" opacity="1" fill-opacity="0" stroke="#fff" stroke-width="12" stroke-opacity="1"/></g></g></g></g></svg>
